X: 211
%
U:~=!turn!
T: The Graceful Move
C:Pipe tune
O:Scotland
B:Keith Norman MacDonald : "The Skye collection of the best reels & strathspeys extant" : 1887
Z:Ralph Palmer
R:Reel
M:C
L:1/8
K:D
e | Acec fdec | Acec e2 c2 | Acec fdec | fBBc d2 c2 :| ABca ecca | ecca e2 c2 |
ABca ecce | fBBc d2 c2 | ABca eaca | eaca e2c2 | ABca eace | fBBc d2 c2 ||
|: AAAg fdec | AAAf e2 c2 | AAAg fdec | fBBc d2 c2 :| aece Aece | aecf e2 c2 |
aece Acec | fBBc d2c2 | aece Acec | aece e2c2 | aece Aece | dfBc d2 c |]


